**kern	**silbe
*ICvox	*
=1	=1
*B-:	*
*M4/4	*
*clefG2	*
1r	.
=2	=2
1r	.
=3	=3
1r	.
=4	=4
1r	.
=5	=5
1r	.
=6	=6
1r	.
=7	=7
1r	.
=8	=8
1r	.
=9	=9
8r	.
8F	I
8B-	was
8d	so
4.c	young
8B-	when
=10	=10
8c	I
8c	was
8B-	born.
[8G	_
4G]	_
4r	.
=11	=11
8r	.
8F	My
8G	eyes
8B-	could
8c	not
8c	yet
8r	.
8B-	see.
=12	=12
4G	_
4r	.
2r	.
=13	=13
8r	.
8F	And
8d	by
8d	the
4c	time
8r	.
8B-	of
=14	=14
8c	my
4c	first
8B-	dawn.
4G	_
4r	.
=15	=15
8r	.
8F	Some-
8G	-bo-
8B-	-dy
4c	hol-
8G	-ding
[8G	me,
=16	=16
8G]	_
4.r	.
8r	.
8G	they
8G	said
8F	I
=17	=17
8r	.
8d	wel-
8d	-come
[8c	you
4c]	_
8r	.
8B-	to
=18	=18
8B-	Crack-
8B-	-er-
4A	-box
8G	Pa-
4.B-	-lace.
=19	=19
8r	.
8B-	We've
8B-	been
8B-	ex-
8c	-pec-
4B-	-ting
[8d	you.
=20	=20
8d]	_
8f	_
2d	_
4r	.
=21	=21
8r	.
8B-	You
8B-	bring
8B-	such
4.c	joy
8B-	in
=22	=22
8B-	Crack-
8B-	-er-
4A	-box
8G	Pa-
4B-	-lace.
[8B-	No
=23	=23
8B-]	_
4B-	mat-
8B-	-ter
8G-	where
4A-	you
[8B-	roam
=24	=24
8B-]	_
8d-	know
8d-	our
[8d-	love
8d-]	_
4d-	is
[8c	true.
=25	=25
8c]	_
4.B-	_
2r	.
=26	=26
1r	.
=27	=27
1r	.
=28	=28
1r	.
=29	=29
8r	.
8F	While
8d	gro-
8d	-wing
4c	up
8r	.
8B-	or
=30	=30
8c	try-
4c	-ing
8B-	to,
4G	_
4r	.
=31	=31
8r	.
8F	not
8G	kno-
8B-	-wing
4c	where
8G	to
[8G	start.
=32	=32
8G]	_
8r	.
4r	.
2r	.
=33	=33
8r	.
8F	I
8d	looked
8d	a-
4.c	-round
8B-	for
=34	=34
8c	some-
4c	-one
8B-	who
4G	_
4r	.
=35	=35
8r	.
8F	may
8G	help
8B-	re-
4c	-veal
8G	my
[8G	heart.
=36	=36
8G]	_
8r	.
8r	.
8G	And
16G	some-
16G	-one
[8G	said
8G]	_
[8F	while
=37	=37
8F]	_
8d	you're
8d	a
[8c	part
4c]	_
8r	.
8B-	of
=38	=38
8B-	Cra-
8B-	-cer-
4A	-box
8G	Pa-
4.B-	-lace
=39	=39
8r	.
8B-	do
8B-	what
8B-	the
8c	rest
4B-	all
8d	do
=40	=40
8r	.
8f	_
2d	_
4r	.
=41	=41
8r	.
8B-	or
8B-	face
8B-	the
4c	fact
8r	.
8B-	that
=42	=42
8B-	Crack-
8B-	-er-
4A	-box
8G	Pa-
4B-	-lace
[8B-	may
=43	=43
8B-]	_
4B-	have
8B-	no
8G-	o-
4A-	-ther
[8B-	choice
=44	=44
8B-]	_
8d-	than
8d-	to
8d-	de-
[8d-	-port
4d-]	_
8c	you
=45	=45
4B-	_
4r	.
2r	.
=46	=46
1r	.
=47	=47
1r	.
=48	=48
1r	.
=49	=49
1r	.
=50	=50
1r	.
=51	=51
1r	.
=52	=52
1r	.
=53	=53
1r	.
=54	=54
1r	.
=55	=55
1r	.
=56	=56
2r	.
8r	.
8F	And
4F	I
=57	=57
8r	.
8d	wel-
8d	-come
[8c	you
4c]	_
8r	.
8B-	to
=58	=58
8B-	Crack-
8B-	-er-
4A	-box
8G	Pa-
4.B-	-lace.
=59	=59
8r	.
8B-	We've
8B-	been
8B-	ex-
8c	-pec-
4B-	-ting
[8d	you.
=60	=60
8d]	_
8f	_
2d	_
4r	.
=61	=61
8r	.
8B-	You
8B-	bring
8B-	such
4.c	joy
8B-	in
=62	=62
8B-	Crack-
8B-	-er-
4A	-box
8G	Pa-
4B-	-lace.
[8B-	No
=63	=63
8B-]	_
8B-	mat-
4G-	-ter
8G-	where
4A-	you
[8B-	roam
=64	=64
8B-]	_
8d-	know
8d-	our
[8d-	love
8d-]	_
4d-	is
[8c	true.
=65	=65
8c]	_
4.B-	_
2r	.
=66	=66
1r	.
=67	=67
1r	.
=68	=68
8r	.
8B-	It's
4c	true,
8A	it's
8B-	true.
8A	_
8r	.
=69	=69
1r	.
=70	=70
1r	.
=71	=71
1r	.
=72	=72
1r	.
=73	=73
8r	.
8F	Some-
8d	-times
8d	are
4c	good,
8r	.
8B-	some-
=74	=74
8c	-times
8c	are
8B-	bad.
[8G	_
4G]	_
4r	.
=75	=75
8r	.
8F	That's
8G	all
8B-	a
4c	part
8G	of
[8G	life.
=76	=76
8G]	_
8r	.
4r	.
2r	.
=77	=77
8r	.
8F	And
8d	stan-
8d	-ding
4.c	in
8B-	bet-
=78	=78
8c	-ween
4c	them
8B-	all.
4G	_
4r	.
=79	=79
8r	.
8F	I
8G	met
8B-	a
4c	Mis-
8G	-ter
[8G	Grief,
=80	=80
8G]	_
4.r	.
16G	and
16G	he
[8G	said
8G]	_
8F	I
=81	=81
8r	.
8d	wel-
8d	-come
[8c	you
4c]	_
8r	.
8B-	to
=82	=82
8B-	Crack-
8B-	-er-
4A	-box
8G	Pa-
4.B-	-lace
=83	=83
8r	.
8B-	was
8B-	not
8B-	ex-
8c	-pec-
4B-	-ting
[8d	you.
=84	=84
8d]	_
8f	_
2d	_
4r	.
=85	=85
8r	.
8B-	Let's
8B-	rap
8B-	and
4c	tap
8r	.
8B-	at
=86	=86
8B-	Crack-
8B-	-er-
4A	-box
8G	Pa-
4B-	-lace,
[8B-	know
=87	=87
8B-]	_
4B-	that
8B-	the
8G-	Lord
4A-	is
[8B-	well
=88	=88
8B-]	_
8d-	and
8d-	in-
[8d-	-side
8d-]	_
4d-	of
[8c	you.
=89	=89
8c]	_
4.B-	_
2r	.
=90	=90
1r	.
=91	=91
1r	.
=92	=92
2r	.
8r	.
8F	And
4F	we
=93	=93
8r	.
8d	wel-
8d	-come
[8c	you
4c]	_
8r	.
8B-	to
=94	=94
8B-	Crack-
8B-	-er-
4A	-box
8G	Pa-
4.B-	-lace.
=95	=95
8r	.
8B-	We've
8B-	been
8B-	ex-
8c	-pec-
4B-	-ting
[8d	you.
=96	=96
8d]	_
8f	_
2d	_
4r	.
=97	=97
8r	.
8B-	You
8B-	bring
8B-	us
4.c	joy
8B-	in
=98	=98
8B-	Crack-
8B-	-er-
4A	-box
8G	Pa-
4B-	-lace.
[8B-	No
=99	=99
8B-]	_
4B-	mat-
8B-	-ter
8G-	where
4A-	you
[8B-	roam
=100	=100
8B-]	_
8d-	know
8d-	our
[8d-	love
8d-]	_
4d-	is
[8c	true.
=101	=101
8c]	_
4.B-	_
2r	.
=102	=102
1r	.
=103	=103
1r	.
=104	=104
1r	.
=105	=105
8r	.
8B-	You
8B-	bring
8B-	such
4.c	joy
8B-	in
=106	=106
8B-	Crack-
8B-	-er-
4A	-box
8G	Pa-
4B-	-lace.
[8B-	No
=107	=107
8B-]	_
4B-	mat-
8B-	-ter
8G-	where
4A-	you
[8B-	roam
=108	=108
8B-]	_
8d-	know
8d-	our
[8d-	love,
8d-]	_
4.B-	_
=109	=109
1r	.
=110	=110
8r	.
8d-	know
8d-	our
[8d-	love
8d-]	_
4B-	is
[8d	true.
=111	=111
2d]	_
2c	_
=112	=112
1r	.
=113	=113
1r	.
=114	=114
1r	.
=115	=115
1r	.
*-	*-
!!!ENC: Nathaniel Condit-Schultz